X:1
T:Weihnachts-Oratorium 
T:10. Sinfonia
T:Orgel (Oboen)
T:J. S. Bach
%%score ( 1 2 ) ( 3 4 ) { ( 5 7 9 10 ) | ( 6 8 11 ) }
L:1/8
Q:1/8=150
M:12/8
K:G
V:1 treble nm="Violine I+II" snm="Vln."
V:2 treble 
V:3 bass nm="Viola+Cello" snm="Vio+Cl\n"
V:4 bass 
V:5 treble nm="Orgel" snm="Org."
V:7 treble 
V:9 treble 
V:10 treble 
V:6 bass 
V:8 bass 
V:11 bass 
V:1
"^\n" B>dg g>fg G3 x2 G- | G>AG F>Ac B3 z2 =f- | f>ea g<^fe- e>dg f<ed- | d>ec- c>dB TB2 A c3- | %4
 c2 B z2 A ^G2 B d3- | d2 ^c z2 B A2 e b3- | b2 a z2 g f>gg f>ge | e d2- d3- d>DG F>GE | D6 z6 | %9
 z12 | B>dg g>fg .G3 z3 | z12 | B>d=f f>ef .e3 z3 | z6 z3 z2 =f- | f>ea g<^fe- e>dg f<ed- | %15
 d>ec- c>dB TB2 A z3 | z12 | z2 e- e>^da- a .g2 z3 | G>Be e>^de .E3 z3 | a2 g g2 f f2 e e2 ^d | %20
 e2 g g>ag f6- | f2 ^d e2 f B>c'b- b>ed | .e3 z3 G>Be e>^de | F3 z2 F- F>GF E>GB | %24
 A3 z2 G- G>BA G>Bd | d^cd g3- g>fb a>bg | f>dg f>ge d3- d>e^c | .d3 z3 z6 | z6 f>ad' d'>^c'd' | %29
 .d3 z3 z6 | z3 z2 e- e>dg fed- | d>^cf edc- c>Be dcB | B2 ^A z3 z6 | z2 b d3- d .c2 z3 | z12 | %35
 z12 | d>fb b>^ab .B3 z3 | e2 d d2 ^c c2 B B2 ^A | B2 d d>ed ^c6- | c2 ^A B2 ^c F>gf- f>BA | %40
 .B3 z3 z z/ c/B- B>d^c | d>c'b- b>cB c2 e a2 g | g2 f z3 z6 | B>dg g>fg G3 z2 G- | %44
 G>AG F>Ac B3 z2 =f- | f>ea g<^fe- e>dg f<ed- | d>ec- c>dB TB2 A z3 | z12 | z6 B>dg g>fg | %49
 .G3 z3 z6 | z6 B>d=f f>ef | .e3 z3 z6 | z3 z2 =f f2 e z2 d | .^c3 g3- g2 f z2 e | %54
 d2 c' e'3- e'2 d' z2 c' | d'>gc' b>c'a g6- | g>Gc B>cA .G3 z3 | B>dg g>fg .G3 z3 | %58
 c'2 b b2 ^a a2 =a g2 f | g2 _b b>c'^a =a6- | a2 f g2 a d>cB A>Bc | B>ed- d>GF .G3 z3 | g6 z6 |] %63
V:2
 z6 B>dg g>fg | A3 z2 A- A>BA G>Bd | dTdc z2 c cTcB z2 B- | B>cA- A>BG G2 F z2 F | %4
 D2 G B3- B2 E z2 ^G | E2 A g3- g2 b e2 d | ^c2 e a3- a2 d d2 c | d>DB A>BG A2 D D2 ^C | A,6 x6 | %9
 x12 | G2 B B2 e .e3 x3 | x12 | G2 d B2 c .c3 z3 | x12 | z2 E c3- c2 B z2 B- | B>cA- A>BG G2 F x3 | %16
 z6 z2 A- A>^Gd- | dcB AF^d .e3 z3 | z6 G>Be e>^de | .E3 z3 a2 g g2 f | g2 e B2 e e3- e>^d^c | %21
 ^d2 f B3- B>AG A>GF | G>Be e>^de E3 z3 | z z/ F/E ^D>FA G3 z2 G- | G>AG F>Ac B3 z2 B- | %25
 B>^cB A>ce e2 c d2 e | A2 d d2 ^c d>DG F>GE | .D3 x9 | x6 D2 F F2 B | .B3 x9 | x6 z2 D B3- | %31
 B2 A z2 A TA2 G z2 G | TG2 F x9 | x3 z2 =f eA^G .A3 | x12 | x12 | z6 d>fb b>^ab | %37
 .B3 z3 e2 d d2 ^c | d2 B F2 B B3- B>^A^G | ^A2 ^c F3- F>gf- f>BA | .B3 x3 z6 | %41
 z2 ^G- G>FG A2 c c2 _e | ^d2 =d x9 | z6 B>dg g>fg | A3 z2 A- A>BA G>Bd | %45
 d(3e/4d/4e/4(3d/4e/4d/4c z2 c c(3d/4c/4d/4(3c/4d/4c/4B z2 B- | B>cA- A>BG G2 F x3 | x12 | %48
 x6 G2 B B2 e | .e3 x9 | x6 G2 d B2 c | .c3 x9 | x6 z2 c e3- | e2 A z2 ^c A2 d c'3- | %54
 c'2 e a2 g f2 a d'3- | d'2 g g2 f g>Ge d>ec | d2 G G2 F .D3 x3 | z6 B>dg g>fg | .G3 z3 g2 e e2 a | %59
 d2 d g>fg e2 A ^c2 e | d3- d>ef G>ed- d>af | d>cB- B>DC .D3 x3 | d6 x6 |] %63
V:3
 .D3 .D3 .E3 .E3 | .E3 .D3 .D3 .D3 | .G,3 .C3 .F,3 .B,3 | G,2 D D2 E D2 F A3- | %4
 A2 G z2 F E2 ^G B3- | B2 A z2 G E2 D ^C2 E | G2 G, z2 A, D2 D A3- | A>FD F2 B, A,2 G, A,2 G, | %8
 F,6 z6 | z12 | .D3 .D3 .B3 z3 | z12 | E2 B, D2 G, .G3 z3 | z12 | .G,3 .A,3 .F,3 .B,3 | %15
 G,2 D D2 E .D3 z3 | z6 z2 E D2 ^G, | A,2 B, C2 B, .B,3 z3 | .B,3 z3 .B,3 z3 | %19
 A,>CE E>^DE .A,3 z3 | .B,3 z3 .F3 z3 | B,2 F E2 ^D E>FG F2 B, | .B,3 .B,3 .C3 .G,3 | %23
 .C3 .B,3 .B,3 .B,3 | .E3 .D3 .D3 .D3 | G2 G E2 D ^C2 E F2 C | D2 E F>DA A2 D B2 A | .F3 z3 z6 | %28
 z6 .A,3 .A,3 | .F3 z3 z6 | z6 .F3 .G3 | .E3 .A3 .D3 .G3 | ^C2 ^A B2 ^c F2 F G2 F, | %33
 B,2 A, B,2 B, E2 E E2 E | A,2 A, B,2 ^G, A,2 B, C2 B, | A,2 D G2 F .F3 z3 | .F3 z3 .F3 z3 | %37
 E>GB B>^AB .E3 z3 | .F3 z3 .^C3 z3 | F2 ^C B,2 ^A, B,2 B, D2 F | .F3 z3 z6 | %41
 z2 B, E2 E E2 E E2 C | .A,3 z3 z6 | .D3 .D3 .E3 .E3 | .E3 .D3 .D3 .D3 | .G,3 .C3 .F,3 .B,3 | %46
 G,2 D D2 E D3 z3 | z12 | z6 .D3 .D3 | .B3 z3 z6 | z6 E2 B, D2 G, | .G3 z3 z6 | z6 G3 z2 B, | %53
 A,2 ^C E3- E2 D z2 c | A2 G F2 A c2 C z2 D | G3 d3- d>BG B2 E | D2 E D2 C .B,3 z3 | %57
 .D3 z3 .D3 z3 | C>EG G>FG .^C3 z3 | .D3 z3 .A3 z3 | A2 D D2 C G2 D D2 D | D>FG G,>B,A, .B,3 z3 | %62
 B6 z6 |] %63
V:4
 G,2 F, F,2 E, E,2 D, D,2 C, | C,2 A,, D,2 D,, .G,,3 .B,,3 | .C,3 .A,,3 .B,,3 .G,,3 | %3
 E,,2 F,, G,,2 C,, D,,>A,,D, D,>C,D, | G,,>B,,D, D,>C,D, E,,>B,,E, E,>D,E, | %5
 A,,>^C,E, E,>D,E, C,>E,G, G,>F,G, | E,>G,^C C>B,C D2 B, A,2 G, | F,2 G, F,2 E, F,2 B, A,2 A,, | %8
 D,2 C, B,,2 A,, G,,3 z3 | x12 | G,2 F, F,2 E, .E,3 x3 | x12 | E,2 D, D,2 C, .C,3 z3 | x12 | %14
 .C,3 .A,,3 .B,,3 .G,,3 | E,,2 F,, G,,2 C,, D,,2 D, E,2 F, | G,2 G,, A,,2 B,, C,2 C B,2 E, | %17
 A,2 G, F,2 B,, .E,3 z3 | .E,,3 x3 .E,3 x3 | .E,,3 z3 C,>E,A, A,>G,A, | %20
 B,,>E,B, B,>A,B, ^A,,>E,^C C>B,C | A,,2 A, G,2 F, G,2 E, B,2 B,, | %22
 E,2 D, D,2 C, C,2 B,, B,,2 A,, | G,,2 F,, B,,2 B,, E,,2 B,, E,2 D, | %24
 C,2 A,, D,2 D,, G,,2 D, G,2 F, | E,2 D, ^C,2 B,, A,,2 G,, F,,2 E,, | %26
 D,,2 B,, A,,2 G,, F,,2 B,, G,,2 A,, | .D,,3 x9 | x6 D,2 ^C, C,2 B,, | .B,,3 x9 | x6 .B,3 .G,3 | %31
 .A,3 .F,3 .G,3 .E,3 | F,2 F, G,E,^A,, B,,2 ^C, D,2 ^D,, | E,,2 F,, ^G,,2 ^G, A,2 E, A,,2 ^C, | %34
 D,2 C, B,,2 E, A,2 =G, F,2 B, | E,2 D, ^C,2 F, .B,3 x3 | .B,,3 x3 .B,3 x3 | %37
 .B,,3 z3 G,,>B,,E, E,>D,E, | F,,>B,,F, F,>E,F, ^E,,>B,,^G, G,>F,G, | %39
 E,,2 E, D,2 ^C, D,2 B,, F,2 F,, | B,,>F,B, B,>A,B, .E,,3 z3 | z2 E, E,2 E,, A,,>E,A, A,>G,A, | %42
 .D,,3 x3 z2 D, D,2 D,, | G,,2 F,, F,,2 E,, E,,2 D,, D,,2 C,, | C,,2 A,, D,2 D,, .G,,3 .B,,3 | %45
 .C,3 .A,,3 .B,,3 .G,,3 | E,,2 F,, G,,2 C, D,2 C, B,,2 A,, | .G,,3 z3 x6 | x6 G,2 F, F,2 E, | %49
 .E,3 x9 | x6 E,2 D, D,2 C, | .C,3 x9 | x6 C,>E,G, G,>=F,G, | A,,>E,A, A,>G,A, D,>F,A, A,>G,A, | %54
 F,,>A,,C, C,>B,,C, A,,>C,F, F,>E,F, | G,,2 E, D,2 C, B,,2 C, B,,2 A,, | B,,2 C, C,>B,,C, .G,3 x3 | %57
 .G,,3 z3 .G,3 z3 | .G,,3 z3 E,>G,^C C>B,C | D,>G,D D>CD ^C,>G,E E>DE | %60
 .C,3 B,,2 A,, B,,2 G,, D,2 D,, | .G,,3 z3 .G,,3 x3 | G,,6 x6 |] %63
V:5
 z12 | z12 | z12 | z12 | z12 | z12 | z12 | z12 | z6 [DGB]2 [CFA] [CFA]2 [B,DG] | %9
 G>ed- d>GF G>ed- d>GF | .[B,DG]3 z3 [EGB]2 [FA^d] [FAd]2 [GBe] | %11
 [Be]2 z z2 [Ac] [GB]2 ^d e2 [fa] | .[eg]3 z3 [Gce]2 [=FBd] [FBd]2 [EGc] | c>ag- g>cB c>ag- g>cB | %14
 .c3 z3 z6 | z6 z3 z2 a | c B2 z3 z6 | z6 e6- | [GB]2 [FA] [FA]2 [GB] B3- B2 A | e12- | %20
 z2 z e>fg f6- | ^d>cB- B>E[^DFA] [EG]>[DFA][EGB] [FA]>[EG][FA] | [EG]3 z3 z6 | z12 | z12 | z12 | %26
 z12 | [Adf]2 [G^ce] [Gce]2 [FAd] d>ba- a>dc | d>ba- a>d^c d3 z3 | d2 g ^A2 f F2 A B2 g | %30
 f2 ^A B2 g f3 z3 | z12 | z3 z2 g fB^A .B3 | BE^D E3 z3 z3 | z2 A- A>^Gd- dcB AF^d | %35
 e3 z3 d2 e e2 f | f2 ^c c2 d d2 ^d d2 e | e2 f f2 g g2 G B2 e | d2 f B>^cd c6- | %39
 c2 ^c d2 g [Bf]>[^Ac][Bd-] d>e[Ec] | [DB]2 [Bd] [Bd]2 [A=f] [Af]2 [^Ge] z2 A | A2 ^G z3 z3 z3 | %42
 z z/ _B/A- A>c=B c>_ba- a>BA | B3 z3 z6 | z12 | z12 | z12 | %47
 [DGB]2 [CFA] [CFA]2 [B,DG] G>ed- d>GF | G>ed- d>GF [B,DG]3 z3 | %49
 [EGB]2 [FA^d] [FAd]2 [GBe] [Be]2 z z2 [Ac] | [GB]2 ^d e2 [fa] [eg]3 z3 | %51
 [Gce]2 [=FBd] [FBd]2 [EGc] c>ag- g>cB | c>ag- g>cB c3 z3 | z12 | z12 | z12 | z3 z3 B2 c c2 d | %57
 d2 A A2 B B3- B2 c | c2 d d2 e e2 A A>GA | _B2 G D2 G e2 [A^c] A2 [Ge] | f>ed- d>gf g>ab d2 f | %61
 .[Bdg]3 z3 z z/ [FAce]/[GB-d-] [Bd]>[B,G][CF] | [B,DG]6 z6 |] %63
V:6
 z12 | z12 | z12 | z12 | z12 | z12 | z12 | z12 | z6 G,6- | G,12- | G,3 z3[K:treble] B,6- | B,12- | %12
 B,3 z3 C6- | C12- | C3 z3 z6 | z12 | z2 d =F3- F E2 z3 | z6 [EGB]2 [FA] [FA]2 [EGB] | %18
 z4 z2 G2 ^G G2 E |[K:bass] C2 B, B,2 A, A,2 E C2 A, | %20
 E2 B, G,2[K:treble] G ^C2 [F^A] [FA]2 [A^c] | [FB]2 F G2 C B,2 B, B,2 B, | B,3 z3 z6 | z12 | z12 | %25
 z12 | z12 | D12- | D6- D3 z3 | B,12- | B,6- B,3 z3 | z12 | z2 ^c E3- E D2 z3 | %33
 z3 z3 z2 D- D>^CG- | G=FE D B,2 z2 E- E>^DA- | AGF E^C^A F2 E E2 D | D2 G G2 F B2 A A2 G | %37
 G2 F F2 E E2 B G2 E | B2 F D2 z ^G2 ^c [^C^E]2 [EG] | .^C3 z2 E F3 F3 | .F3 z3 z2 E E2 z | %41
 B,2 D z3 z3 z3 | z2 F D3 F2 D C>B,C | B,3 z3 z6 | z12 | z12 | z12 |[K:bass] G,12- | G,6- G,3 z3 | %49
[K:treble] B,12- | B,6- B,3 z3 | C12- | C6- C3 z3 | z12 | z12 | z12 |[K:bass] z3 z3 G,2 A, A,2 B, | %57
 B,2 C C2 D D3- D2 G, | G,2 B, B,2 ^C C2 E E2 [A,C] | D2 _B, G,2 D E2 E [^CE]2 [A,C] | %60
 D3- D2 A, B,>C[G,D] D2 A | .G,3 z3 z3 G,2 A, | G,6 z6 |] %63
V:7
 x12 | x12 | x12 | x12 | x12 | x12 | x12 | x12 | x12 | D2 F G2 C D2 F G2 C | x12 | %11
 G>cB- B>E^D E>cB- B3/2 x3/2 | x12 | G2 B c2 =F G2 B c2 F | .G3 x9 | x12 | D3 x9 | x12 | e12- | %19
 [EA]2 [GB] [GB]2 [Ac] [Ac]2 c [Ae]2 [ca] | [GB]2 [EB] G2 B ^c2 x4 | x12 | x12 | x12 | x12 | x12 | %26
 x12 | x6 A2 ^c d2 G | A2 ^c d2 G A3 x3 | d2 ^c c2 B B>gf- f>B^A | B>gf- f>B^A B3 x3 | x12 | %32
 x11 c | x12 | x12 | x2 B- B>^Ae B6- | B12- | B12- | B8 z4 | x12 | x12 | x12 | %42
 x2 c F2 G A2 c F>EF | G3 x9 | x12 | x12 | x12 | x6 D2 F G2 C | D2 F G2 C x6 | x6 G>cB- B>E^D | %50
 E>cB- B3/2 x15/2 | x6 G2 B c2 =F | G2 B c2 =F G3 x3 | x12 | x12 | x12 | x8 A A2 G | %57
 G6- G2 =F F2 E | x12 | D2 G _B>A x A2 x4 | A>GA B2 c d>[I:staff +1]FG- G>F[I:staff -1]d | x12 | %62
 x12 |] %63
V:8
 x12 | x12 | x12 | x12 | x12 | x12 | x12 | x12 | x12 | B,2 C B,2 A, B,2 C B,2 A, | %10
 x6[K:treble] x6 | z2 [^DA] [EG]2 z z2 A G z/ E/D | E3 x9 | E2 =F E2 D E2 F E2 D | x12 | x12 | %16
 x5 D .G,3 x3 | x12 | E6- E2 D D2 C |[K:bass] x12 | x5[K:treble] x7 | x12 | x12 | x12 | x12 | x12 | %26
 x12 | x6 F2 G F2 E | F2 G F2 E F3 x3 | F2 E E2 D D2 ^C D2 E | D2 ^C D2 E F3 x3 | x12 | x8 F A,3- | %33
 A, G,2 x9 | x12 | x6 B,2 ^C C2 D | D2 E E2 F F3- F2 B, | B,2 D D2 E E2 B, E2 G | %38
 F2 B, D2 F ^G2 ^E x3 | .F3 x2 ^C F>ED/C/ B,2 C | .D3 x5 B, ^G,2 A, | x12 | x8 F D2 D | D3 x9 | %44
 x12 | x12 | x12 |[K:bass] x6 B,2 C B,2 A, | B,2 C B,2 A, x6 |[K:treble] x6 z2 [^DA] [EG]2 z | %50
 z2 A G z/ E/^D E3 x3 | x6 E2 =F E2 D | E2 =F E2 D x6 | x12 | x12 | x12 |[K:bass] x12 | x12 | %58
 E2 D D2 x7 | x12 | F2 A, G,2 C G2 x A,2 A, | x12 | x12 |] %63
V:9
 x12 | x12 | x12 | x12 | x12 | x12 | x12 | x12 | x12 | x12 | x12 | x12 | x12 | x12 | x12 | x12 | %16
 x12 | x12 | x12 | x12 | e12 | x12 | x12 | x12 | x12 | x12 | x12 | x12 | x12 | x12 | x12 | x12 | %32
 x12 | x12 | x12 | x12 | x12 | x12 | x12 | ^A>gf- f>BA x3 F2 x | x12 | x12 | x12 | x12 | x12 | %45
 x12 | x12 | x12 | x12 | x12 | x12 | x12 | x12 | x12 | x12 | x12 | x6 G6- | G12 | G12- | %59
 G6- G3- G2 x | x12 | x12 | x12 |] %63
V:10
 x12 | x12 | x12 | x12 | x12 | x12 | x12 | x12 | x12 | x12 | x12 | x12 | x12 | x12 | x12 | x12 | %16
 x12 | x12 | x12 | x12 | x12 | f2 x10 | x12 | x12 | x12 | x12 | x12 | x12 | x12 | x12 | x12 | x12 | %32
 x12 | x12 | x12 | x12 | x12 | x12 | x12 | x12 | x12 | x12 | x12 | x12 | x12 | x12 | x12 | x12 | %48
 x12 | x12 | x12 | x12 | x12 | x12 | x12 | x12 | x12 | x12 | x12 | x12 | x12 | x12 | x12 |] %63
V:11
 x12 | x12 | x12 | x12 | x12 | x12 | x12 | x12 | x12 | x12 | x6[K:treble] x6 | x12 | x12 | x12 | %14
 x12 | x12 | x12 | x12 | x12 |[K:bass] x12 | x5[K:treble] x7 | x12 | x12 | x12 | x12 | x12 | x12 | %27
 x12 | x12 | x12 | x12 | x12 | x12 | x12 | x12 | x12 | x12 | x12 | x12 | x12 | x12 | x12 | x12 | %43
 x12 | x12 | x12 | x12 |[K:bass] x12 | x12 |[K:treble] x12 | x12 | x12 | x12 | x12 | x12 | x12 | %56
[K:bass] x12 | x12 | x12 | x12 | x12 | x9 D3 | x12 |] %63

